food-steak-off.svg

<svg fill="currentColor" viewBox="0 0 24 24"><path d="M2.39 1.73 1.11 3l4.16 4.16C5.08 7.83 5 8.53 5 9.26a7.03 7.03 0 0 0 3.74 5.93c1.36.71 2.26 2.06 2.26 3.6V19c0 1.66 1.34 3 3 3 1.68 0 2.83-.89 3.6-2.5l3.24 3.23 1.27-1.27zM14 20c-.55 0-1-.45-1-1v-.21c0-2.23-1.28-4.29-3.33-5.37A5.04 5.04 0 0 1 7 9.18V8.9l1.16 1.15c.03.1.05.2.08.3l.16-.06 1.22 1.21-.54.21c.3.33.65.61 1.06.82.67.36 1.26.81 1.77 1.32l.04-.01 1.22 1.22-.22.08c.51.82.85 1.75.98 2.71l1.27-.46c.02-.07.05-.15.07-.23l.8.8C15.47 19.68 14.68 20 14 20m1.79-12.4-3.65 1.34-2.26-2.26 3.81-1.38c1.25.47 1.84 1.42 2.1 2.3m-7.2-2.21L7.17 3.97C8.41 2.77 10.07 2 11.88 2 19 2 19 9 19 9c0 2.46-.1 4.63-.34 6.46l-1.82-1.82c.1-1.28.16-2.81.16-4.64 0-.82-.31-5-5.12-5-1.21 0-2.38.5-3.29 1.39m7.09 7.11-2.32-2.35L16 9.19c0 1.22-.03 2.27-.08 3.21z"/></svg>

<svg  viewBox="0 0 24 24" fill="currentColor"><path  d="M2.39 1.73L1.11 3L5.27 7.16C5.08 7.83 5 8.53 5 9.26C5.1 11.83 6.59 14.05 8.74 15.19C10.1 15.9 11 17.25 11 18.79V19C11 20.66 12.34 22 14 22C15.68 22 16.83 21.11 17.6 19.5L20.84 22.73L22.11 21.46L2.39 1.73M14 20C13.45 20 13 19.55 13 19V18.79C13 16.56 11.72 14.5 9.67 13.42C8.09 12.58 7.07 10.96 7 9.18C7 9.09 7 9 7 8.9L8.16 10.05C8.19 10.15 8.21 10.25 8.24 10.35L8.4 10.29L9.62 11.5L9.08 11.71C9.38 12.04 9.73 12.32 10.14 12.53C10.81 12.89 11.4 13.34 11.91 13.85L11.95 13.84L13.17 15.06L12.95 15.14C13.46 15.96 13.8 16.89 13.93 17.85L15.2 17.39C15.22 17.32 15.25 17.24 15.27 17.16L16.07 17.96C15.47 19.68 14.68 20 14 20M15.79 7.6L12.14 8.94L9.88 6.68L13.69 5.3C14.94 5.77 15.53 6.72 15.79 7.6M8.59 5.39L7.17 3.97C8.41 2.77 10.07 2 11.88 2H11.88C19 2 19 9 19 9C19 11.46 18.9 13.63 18.66 15.46L16.84 13.64C16.94 12.36 17 10.83 17 9C17 8.18 16.69 4 11.88 4H11.88C10.67 4 9.5 4.5 8.59 5.39M15.68 12.5L13.36 10.15L16 9.19C16 10.41 15.97 11.46 15.92 12.4L15.68 12.5Z"/></svg>
